X:1
T:Title
%%score { 1 | 2 }
L:1/8
M:6/8
K:G
V:1 treble nm="Grand Piano"
V:2 bass 
V:1
 z3 z2[Q:1/4=84] [B,D] | [B,D]>[B,E][B,F] [B,G][CA][DB] | BGc B2 c | dBe dBG | %4
 F[Ac][GB] [FA]2 [CD] | [B,D]>[B,E][B,F] [B,G][CA][DB] | BGc B2 [GB] | %7
 [Gc]>[Gd][Ge] [DGd][DGB][DG] |[M:5/8] [DGB][DGB][CDA] [B,DG]2 |[M:1/8] d |[M:3/4] d>^c ed BG | %11
 B>_B c =B2 B/B/ | [GB][FA] [FA][FA] [GB]A | AB ^c [Fd]2 [CD]/[CD]/ | %14
 [B,D]>[B,E] [B,F][B,G] [CA][DB] | BG c B2 [GB] | [Gc]>[Gd] [Ge][DGd] [DGB][DG] | %17
[M:5/8] [DGB][DGB][CDA] [B,DG]2 |] %18
V:2
 z3 z2 [G,,G,] | [G,,G,]>[G,,G,][G,,G,] [G,,G,][G,,G,][G,,G,] | %2
 [G,D][G,B,][K:treble][G,E] [G,D]2 [G,A,D] | [G,B,G][G,DG][G,CG] [G,B,G][G,DG][K:bass][B,D] | %4
 [A,D][F,D][G,D] [D,D]2 [D,F,] | [G,,G,]>[G,,G,][G,,G,] [G,,G,][G,,G,][G,,G,] | %6
 [G,D][G,B,][G,E] [G,D]2 [=F,D] | [E,C]>[D,B,][C,C] B,,G,,B,, |[M:5/8] D,D,D, G,,2 | %9
[M:1/8][K:treble] [G,B,G] |[M:3/4] [G,B,G]>[G,_B,G] [G,CG][G,=B,G] [G,DG][G,B,] | %11
 [G,DG]>[G,^CG] [G,EG] [G,DG]2 [G,DG]/[G,DG]/ | [D,D][D,D] [D,D][D,D] [D,D][F,D] | %13
 [A,^C][A,D^G] [A,E=G][K:bass] [D,D]2 [D,F,]/[D,F,]/ | %14
 [G,,G,]>[G,,G,] [G,,G,][G,,G,] [G,,G,][G,,G,] | [G,D][G,B,] [G,E] [G,D]2 [=F,D] | %16
 [E,C]>[D,B,] [C,C]B,, G,,B,, |[M:5/8] D,D,D, G,,2 |] %18

